X:1
T:Mein Hertze was ligt dir
T:Gemignano Capilupi
T:Source : Canzonette mit 3 Stimmen/ H.Vecchi und G.Capilupi---Nürnberg---P.Kauffmann---1606 Editor : André Vierendeels (21/02/17).
T:Notes : Original clefs : C1, C1, C4 Editorial accidentals above the staff Text Middle German by Valentin Hauszmann German contrafactum of "Amanti correse" 1597 
T:Mein Hertze was ligt dir
T:©
T:©
C:Gemignano Capilupi
Z:©
%%score [ 1 2 3 ]
L:1/8
Q:1/4=102
M:4/4
K:C
V:1 treble nm="Soprano 1" snm="S 1"
V:2 treble nm="Soprano 2" snm="S 2"
V:3 treble-8 nm="Tenor" snm="T"
V:1
 z8 |"^1)" z2 A2 F4 | E2 F2 G3 A | F3 G E4 |[M:2/4] D4 ::[M:4/4] z2 G2 G2 G2 | G2 A2 _B4 | %7
w: |Mein Hert-|ze, was ligt dir|an für Schmer-|ze?|Was treibst du|für ein kla-|
w: |Die Lie-|be, lasz dich nicht|so be- trü-|ben,|lasz dei- nen|Schatz den wil-|
 A2 A2 A2 A2 | A2 d2 B4 | A4 z2 d2 | B2 B2 c3 B | A4 G4 | G2 G2 F3 E | D2 D2 ^C4 | D8 :| %15
w: gen? Was treibst du|für ein kla-|gen? Sey|nur zu- frie- *|* den,|thu nicht bald _|_ ver- za-|gen.|
w: len, lasz dei- nen|Schatz den wil-|len, vil-|leicht wirdt sie _|_ noch|dein be- ger _|_ er- fül-|len.|
V:2
 z8 |"^2)""^1)" z2 F2 D4 | ^C2 D2 E3 F | D3 D ^C4 |[M:2/4] D4 ::[M:4/4] z2 E2 E2 D2 | E2 F2 G4 | %7
w: |Mein Hert-|ze, was ligt dir|an für Schmer-|ze?|Was treibst du|für ein kla-|
w: |Auff zar-|te, Ung- frau- en|musz man war-|ten,|kei- nen dienst|soll man spa-|
 F2 F2 F2 E2 | F2 A2 ^G4 | A2 A2 F2 F2 | G3 F E4 | D2 d2 B2 B2 | c3 B A2 G2 | F2 F2 E4 | D8 :| %15
w: gen? Was treibst du|für ein kla-|gen? Sey nur zu-|frie- * *|den, sey nur zu-|frie- den, thu nicht|bald ver- za-|gen.|
w: ren, kei- nen dienst|soll lan spa-|ren, wer fleis- sig|dient _ _|wer fleis- sig dient,|dem _ wirdt heil|wi- der fah-|ren.|
V:3
"^1)""^4)" z2 d2 d4 |"^3)" A2 D2 D4 | A2 d2 c3 A | _B3 G A4 |[M:2/4] D4 ::[M:4/4] z2 c2 c2 B2 | %6
w: Mein Hert-|ze, mein Hert-|ze, was ligt dir|an für Schmer-|ze?|Was treibst du|
w: Mein Hert-|ze, halt disz|für _ kei- *|nen _ Scher-|ze,|thu es auffs|
 c2 A2 G4 | D2 d2 d2 ^c2 | d2 d2 e4 | A2 A2 _B4 | G4 A4 | ^F4 G4 | E4 F4- | F2 G2 A4 | D8 :| %15
w: für ein kla-|gen? Was treibst du|für ein kla-|gen? Sey nur|zu- frie-|den, thu|nicht bald|_ ver- za-|gen.|
w: glück- e se-|tzen, thu es auffs|glück e se-|tzen, das- sel-|big hilfft,|den Kü-|nen offt|_ zu le-|tzen.|

